X: 17
T: Pull The Knife And Stick It Again
Z: Cashel
S: https://thesession.org/tunes/398#setting51679
R: jig
M: 6/8
L: 1/8
K: Emin
|: ~E3 GFE | DBE DEF | ~E3 GFE | AB^G AFD |
~E3 GFE | DBE DEF | G2E FED |1 BED ~E2F :|2 BED EBd ||
|: edB {d}BAF | EDB, DBd | edB BAF | AB^c def |
edB {d}BAF |EDB, DEF | G2E FED |1 BED EBd :|2 BED ~E3 ||

